src/assets/footer/twitter.svg

<svg fill="none" height="37" viewBox="0 0 36 37" width="36" xmlns="http://www.w3.org/2000/svg"><circle cx="18" cy="18.7598" r="17.25" stroke="#000" stroke-opacity=".1" stroke-width="1.5"/><path d="m26.9999 13.007c-.6443.3222-1.2886.4296-2.0403.537.7517-.4296 1.2886-1.0739 1.5034-1.933-.6443.4296-1.396.6443-2.2551.8591-.6443-.6443-1.6108-1.0739-2.5773-1.0739-2.2551 0-3.9733 2.1478-3.4363 4.2955-2.8995-.1074-5.4768-1.5034-7.3023-3.6511-.9665 1.6108-.4296 3.6511 1.0738 4.725-.5369 0-1.0738-.2148-1.6108-.4296 0 1.6108 1.1813 3.1142 2.7921 3.5438-.5369.1073-1.0739.2147-1.6108.1073.4295 1.3961 1.7182 2.4699 3.329 2.4699-1.2887.9665-3.2216 1.5034-5.04718 1.2887 1.61078.9664 3.43638 1.6108 5.36928 1.6108 6.5506 0 10.2017-5.4767 9.987-10.5239.7517-.4295 1.396-1.0739 1.8255-1.8256z" fill="#000" fill-opacity=".5"/></svg>

<svg width="36" height="37" viewBox="0 0 36 37" fill="none" xmlns="http://www.w3.org/2000/svg">
<circle cx="18" cy="18.7598" r="17.25" stroke="black" stroke-opacity="0.1" stroke-width="1.5"/>
<path d="M26.9999 13.007C26.3556 13.3292 25.7113 13.4366 24.9596 13.544C25.7113 13.1144 26.2482 12.4701 26.463 11.611C25.8187 12.0406 25.067 12.2553 24.2079 12.4701C23.5636 11.8258 22.5971 11.3962 21.6306 11.3962C19.3755 11.3962 17.6573 13.544 18.1943 15.6917C15.2948 15.5843 12.7175 14.1883 10.892 12.0406C9.9255 13.6514 10.4624 15.6917 11.9658 16.7656C11.4289 16.7656 10.892 16.5508 10.355 16.336C10.355 17.9468 11.5363 19.4502 13.1471 19.8798C12.6102 19.9871 12.0732 20.0945 11.5363 19.9871C11.9658 21.3832 13.2545 22.457 14.8653 22.457C13.5766 23.4235 11.6437 23.9604 9.81812 23.7457C11.4289 24.7121 13.2545 25.3565 15.1874 25.3565C21.738 25.3565 25.3891 19.8798 25.1744 14.8326C25.9261 14.4031 26.5704 13.7587 26.9999 13.007Z" fill="black" fill-opacity="0.5"/>
</svg>
